svgs/regular/circle-t.svg

<svg xmlns="http://www.w3.org/2000/svg" viewBox="0 0 512 512"><!-- Font Awesome Pro 6.0.0-alpha2 by @fontawesome - https://fontawesome.com License - https://fontawesome.com/license (Commercial License) --><path d="M360 144H152C138.75 144 128 154.75 128 168S138.75 192 152 192H232V360C232 373.25 242.75 384 256 384S280 373.25 280 360V192H360C373.25 192 384 181.25 384 168S373.25 144 360 144ZM256 16C123.451 16 16 123.451 16 256S123.451 496 256 496S496 388.549 496 256S388.549 16 256 16ZM256 448C150.131 448 64 361.869 64 256S150.131 64 256 64S448 150.131 448 256S361.869 448 256 448Z"/></svg>

<svg xmlns="http://www.w3.org/2000/svg" viewBox="0 0 512 512"><!--! Font Awesome Pro 6.4.0 by @fontawesome - https://fontawesome.com License - https://fontawesome.com/license (Commercial License) Copyright 2023 Fonticons, Inc. --><path d="M256 48a208 208 0 1 1 0 416 208 208 0 1 1 0-416zm0 464A256 256 0 1 0 256 0a256 256 0 1 0 0 512zM152 144c-13.3 0-24 10.7-24 24s10.7 24 24 24h80V360c0 13.3 10.7 24 24 24s24-10.7 24-24V192h80c13.3 0 24-10.7 24-24s-10.7-24-24-24H256 152z"/></svg>
